X:1
T:Bheir Me O or Eriskay Love Lilt
M:3/4
L:1/8
K:G
 GB| d3- ed B| G4 GB| d3- ed B| A4 DE| F3 GA-d| d4 EE| D3 E G2| G4||\
